static/images/user-logos/sandstorm-logo-rust.svg

<svg enable-background="new 0 0 166.7 43.7" viewBox="0 0 166.7 43.7" xmlns="http://www.w3.org/2000/svg" xmlns:xlink="http://www.w3.org/1999/xlink"><filter id="a" filterUnits="userSpaceOnUse" height="36.1" width="35" x="6.4" y="2.2"><feColorMatrix values="1 0 0 0 0 0 1 0 0 0 0 0 1 0 0 0 0 0 1 0"/></filter><mask id="b" height="36.1" maskUnits="userSpaceOnUse" width="35" x="6.4" y="2.2"><g filter="url(#a)"><path d="m4.7-.8h37.7v41.1h-37.7z" fill="url(#c)"/></g></mask><linearGradient id="c" gradientTransform="matrix(-1 0 0 -1 5744.112 5775.334)" gradientUnits="userSpaceOnUse" x1="5700.899" x2="5740.288" y1="5775.309" y2="5735.92"><stop offset="0"/><stop offset=".003" stop-color="#010101"/><stop offset=".124" stop-color="#3c3c3c"/><stop offset=".248" stop-color="#707070"/><stop offset=".372" stop-color="#9c9c9c"/><stop offset=".496" stop-color="#c0c0c0"/><stop offset=".621" stop-color="#dbdbdb"/><stop offset=".746" stop-color="#efefef"/><stop offset=".872" stop-color="#fbfbfb"/><stop offset="1" stop-color="#fff"/></linearGradient><switch><g fill="#303030"><path d="m46.6 30.9c1 1 2.3 1.7 3.8 1.7 1.8 0 2.9-.9 2.9-2.2 0-1.4-1-1.8-2.3-2.4l-2-.9c-1.3-.5-2.8-1.5-2.8-3.5 0-2.1 1.8-3.6 4.3-3.6 1.6 0 3.1.7 4 1.7l-.9 1.1c-.8-.8-1.9-1.3-3.1-1.3-1.5 0-2.6.8-2.6 2 0 1.3 1.2 1.8 2.3 2.3l2 .8c1.6.7 2.8 1.6 2.8 3.6 0 2.2-1.8 3.9-4.7 3.9-1.9 0-3.6-.8-4.8-2zm16.6-3.4c0-1.3-.4-2.5-2.1-2.5-1.2 0-2.2.5-3 1.1l-.7-1.2c.9-.6 2.4-1.3 4-1.3 2.5 0 3.5 1.6 3.5 4.2v6.2h-1.4l-.1-1.2c-1 .8-2.1 1.5-3.4 1.5-1.7 0-3-1.1-3-2.9-.1-2.3 1.8-3.4 6.2-3.9zm-2.8 5.3c1 0 1.8-.5 2.8-1.4v-2.8c-3.4.4-4.5 1.2-4.5 2.5-.1 1.2.7 1.7 1.7 1.7zm7.7-9h1.4l.1 1.5h.1c1-1 2-1.7 3.4-1.7 2.1 0 3.1 1.4 3.1 4v6.4h-1.7v-6.2c0-1.9-.6-2.7-1.9-2.7-1 0-1.7.5-2.8 1.6v7.3h-1.7zm15-.3c1.2 0 1.9.4 2.8 1.2v-5.6h1.7v14.8h-1.4l-.1-1.2h-.1c-.8.8-1.9 1.4-3.1 1.4-2.5 0-4.2-1.9-4.2-5.3.1-3.2 2.1-5.3 4.4-5.3zm.2 9.2c.9 0 1.7-.5 2.6-1.4v-5.3c-.9-.7-1.6-1-2.5-1-1.6 0-2.9 1.6-2.9 3.9s1 3.8 2.8 3.8zm7.5-1.1c.9.7 1.8 1.2 3 1.2 1.3 0 2-.7 2-1.6 0-1-1.2-1.5-2.3-1.9-1.4-.5-3-1.2-3-2.9 0-1.6 1.3-2.9 3.5-2.9 1.3 0 2.4.5 3.1 1.1l-.8 1.1c-.7-.5-1.4-.9-2.3-.9-1.3 0-1.9.7-1.9 1.5 0 .9 1.1 1.3 2.2 1.7 1.5.5 3.1 1.1 3.1 3.1 0 1.6-1.3 3-3.7 3-1.4 0-2.8-.6-3.8-1.4zm9.3-6.4h-1.5v-1.3l1.6-.1.2-2.8h1.4v2.8h2.7v1.4h-2.7v5.6c0 1.2.4 2 1.6 2 .4 0 .8-.1 1.1-.3l.3 1.3c-.6.2-1.2.4-1.9.4-2.2 0-2.9-1.4-2.9-3.4v-5.6zm10.4-1.7c2.5 0 4.7 1.9 4.7 5.3s-2.2 5.3-4.7 5.3-4.7-1.9-4.7-5.3c0-3.3 2.2-5.3 4.7-5.3zm0 9.2c1.7 0 2.9-1.6 2.9-3.9s-1.2-3.9-2.9-3.9-2.9 1.6-2.9 3.9c0 2.4 1.2 3.9 2.9 3.9zm7.4-8.9h1.4l.1 1.8h.1c.7-1.3 1.7-2.1 2.9-2.1.4 0 .7.1 1.1.2l-.3 1.5c-.3-.1-.6-.2-1-.2-.9 0-1.9.6-2.6 2.3v6.5h-1.7zm7.2 0h1.4l.1 1.5h.1c.9-1 1.9-1.7 3.1-1.7 1.5 0 2.4.7 2.8 1.9 1.1-1.1 2.1-1.9 3.3-1.9 2.1 0 3.1 1.4 3.1 4v6.4h-1.7v-6.2c0-1.9-.6-2.7-1.9-2.7-.8 0-1.6.5-2.5 1.6v7.3h-1.7v-6.2c0-1.9-.6-2.7-1.9-2.7-.7 0-1.6.5-2.5 1.6v7.3h-1.7zm18.2 7.7c.7 0 1.2.5 1.2 1.3 0 .7-.6 1.3-1.2 1.3-.7 0-1.2-.5-1.2-1.3-.1-.7.5-1.3 1.2-1.3zm3.9-10.9c0-.7.5-1.1 1.2-1.1s1.2.4 1.2 1.1c0 .6-.5 1.1-1.2 1.1s-1.2-.5-1.2-1.1zm.3 3.2h1.7v10.1h-1.7zm9.1-.3c2.5 0 4.7 1.9 4.7 5.3s-2.2 5.3-4.7 5.3-4.7-1.9-4.7-5.3c0-3.3 2.2-5.3 4.7-5.3zm0 9.2c1.7 0 2.9-1.6 2.9-3.9s-1.2-3.9-2.9-3.9-2.9 1.6-2.9 3.9c0 2.4 1.2 3.9 2.9 3.9z"/><g mask="url(#b)"><path d="m13.2 18.4v1.3h1.3.1 1.4 1.3 1.4v-1.4-1.4h-1.4v-1.3h-1.3v-1.4h-1.4-.1-1.3v1.4.1 1.4z"/><path d="m23.5 6h1.5v1.5h-1.5z"/><path d="m17.7 16.5h1.5v-1.5h-1.5v-1.5h-1.5v1.5h1.5z"/><path d="m20.3 15.1v.2 1.2.1 1.3h1.3.2 1.2.1 1.3 1.4v-1.4h-1.4v-1.4h-1.3v-1.3h-1.3v-1.3h-1.5v1.4z"/><path d="m22.3 11.2h1.5v1.5h-1.5z"/><path d="m29.8 3.2h1.5v1.5h-1.5z"/><path d="m23.9 12.8h1.5v1.5h-1.5z"/><path d="m37.4 4.7v-1.4h-.8v-1.1h-1.4v1.5h.7v1z"/><path d="m32.6 6.3h1.5v1.5h-1.5z"/><path d="m25.4 14.4h1.5v1.5h-1.5z"/><path d="m18.9 21.3v.1 1.2.1 1.4 1.3h1.3.1 1.2.2 1.2.1 1.4v-1.3-.2-1.3h-1.4v-1.3h-1.3v-1.4h-1.5-1.3z"/><path d="m22 19.3v1.5h1.5v1.5h1.5v-1.5h-1.5v-1.5z"/><path d="m33.6 10h1.5v1.5h-1.5z"/><path d="m31.9 13.7h-.3v-.9h-1v-.4h-1.4v-1.4h-1.4v1.4 1.4 1.2.2 1.3h1.5 1.2 1.4 1.4v-1.5h-1.4z"/><path d="m28.5 17.4h1.5v1.5h-1.5z"/><path d="m37 10h1.5v1.5h-1.5z"/><path d="m30 19h1.5v1.5h-1.5z"/><path d="m41.4 7.6h-1.5v.5h-.1v1.5h1.5v-.6h.1z"/><path d="m37.8 13.2h1.5v1.5h-1.5z"/><path d="m31.6 20.5h1.5v1.5h-1.5z"/><path d="m30.5 22.5v-1.3h-1.3v-1.3h-1.4v-1.4h-1.4v1.5 1.2.1 1.2.2 1.3h1.3.1 1.2.2 1.2.1 1.3v-1.5z"/><path d="m27.8 25.1h1.5v1.5h-1.5z"/><path d="m36.9 19.4h1.5v1.5h-1.5z"/><path d="m29.3 26.6h1.5v1.5h-1.5z"/><path d="m30 28.3h-1.3v-1.3h-1.3v-1.4h-1.5-1.3v1.5 1.2.1 1.2.2 1.3h1.4 1.2.2 1.2.1 1.3v-1.5z"/><path d="m23 32.4v-5.4h-5.4v-5.3h-5.3v-5.3h-5.9v5.8 5.4 4.8 5.9h5.9 5.3 5.4 5.8v-5.9z"/></g></g></switch></svg>

<svg version="1" xmlns="http://www.w3.org/2000/svg" viewBox="0 0 166.7 43.7" enable-background="new 0 0 166.7 43.7"><style>.st0{fill:#303030}.st1{filter:url(#Adobe_OpacityMaskFilter)}.st2{fill:url(#SVGID_2_)}.st3{mask:url(#SVGID_1_)}</style><switch><g><g id="Layer_1"><path class="st0" d="M46.6 30.9c1 1 2.3 1.7 3.8 1.7 1.8 0 2.9-.9 2.9-2.2 0-1.4-1-1.8-2.3-2.4l-2-.9c-1.3-.5-2.8-1.5-2.8-3.5 0-2.1 1.8-3.6 4.3-3.6 1.6 0 3.1.7 4 1.7l-.9 1.1c-.8-.8-1.9-1.3-3.1-1.3-1.5 0-2.6.8-2.6 2 0 1.3 1.2 1.8 2.3 2.3l2 .8c1.6.7 2.8 1.6 2.8 3.6 0 2.2-1.8 3.9-4.7 3.9-1.9 0-3.6-.8-4.8-2l1.1-1.2zm16.6-3.4c0-1.3-.4-2.5-2.1-2.5-1.2 0-2.2.5-3 1.1l-.7-1.2c.9-.6 2.4-1.3 4-1.3 2.5 0 3.5 1.6 3.5 4.2V34h-1.4l-.1-1.2c-1 .8-2.1 1.5-3.4 1.5-1.7 0-3-1.1-3-2.9-.1-2.3 1.8-3.4 6.2-3.9zm-2.8 5.3c1 0 1.8-.5 2.8-1.4v-2.8c-3.4.4-4.5 1.2-4.5 2.5-.1 1.2.7 1.7 1.7 1.7zm7.7-9h1.4l.1 1.5h.1c1-1 2-1.7 3.4-1.7 2.1 0 3.1 1.4 3.1 4V34h-1.7v-6.2c0-1.9-.6-2.7-1.9-2.7-1 0-1.7.5-2.8 1.6V34h-1.7V23.8zm15-.3c1.2 0 1.9.4 2.8 1.2v-5.6h1.7v14.8h-1.4l-.1-1.2H86c-.8.8-1.9 1.4-3.1 1.4-2.5 0-4.2-1.9-4.2-5.3.1-3.2 2.1-5.3 4.4-5.3zm.2 9.2c.9 0 1.7-.5 2.6-1.4V26c-.9-.7-1.6-1-2.5-1-1.6 0-2.9 1.6-2.9 3.9s1 3.8 2.8 3.8zm7.5-1.1c.9.7 1.8 1.2 3 1.2 1.3 0 2-.7 2-1.6 0-1-1.2-1.5-2.3-1.9-1.4-.5-3-1.2-3-2.9 0-1.6 1.3-2.9 3.5-2.9 1.3 0 2.4.5 3.1 1.1l-.8 1.1c-.7-.5-1.4-.9-2.3-.9-1.3 0-1.9.7-1.9 1.5 0 .9 1.1 1.3 2.2 1.7 1.5.5 3.1 1.1 3.1 3.1 0 1.6-1.3 3-3.7 3-1.4 0-2.8-.6-3.8-1.4l.9-1.1zm9.3-6.4h-1.5v-1.3l1.6-.1.2-2.8h1.4v2.8h2.7v1.4h-2.7v5.6c0 1.2.4 2 1.6 2 .4 0 .8-.1 1.1-.3l.3 1.3c-.6.2-1.2.4-1.9.4-2.2 0-2.9-1.4-2.9-3.4v-5.6zm10.4-1.7c2.5 0 4.7 1.9 4.7 5.3s-2.2 5.3-4.7 5.3-4.7-1.9-4.7-5.3c0-3.3 2.2-5.3 4.7-5.3zm0 9.2c1.7 0 2.9-1.6 2.9-3.9s-1.2-3.9-2.9-3.9-2.9 1.6-2.9 3.9c0 2.4 1.2 3.9 2.9 3.9zm7.4-8.9h1.4l.1 1.8h.1c.7-1.3 1.7-2.1 2.9-2.1.4 0 .7.1 1.1.2l-.3 1.5c-.3-.1-.6-.2-1-.2-.9 0-1.9.6-2.6 2.3v6.5h-1.7v-10zm7.2 0h1.4l.1 1.5h.1c.9-1 1.9-1.7 3.1-1.7 1.5 0 2.4.7 2.8 1.9 1.1-1.1 2.1-1.9 3.3-1.9 2.1 0 3.1 1.4 3.1 4V34h-1.7v-6.2c0-1.9-.6-2.7-1.9-2.7-.8 0-1.6.5-2.5 1.6V34h-1.7v-6.2c0-1.9-.6-2.7-1.9-2.7-.7 0-1.6.5-2.5 1.6V34h-1.7V23.8zm18.2 7.7c.7 0 1.2.5 1.2 1.3 0 .7-.6 1.3-1.2 1.3-.7 0-1.2-.5-1.2-1.3-.1-.7.5-1.3 1.2-1.3zm3.9-10.9c0-.7.5-1.1 1.2-1.1s1.2.4 1.2 1.1c0 .6-.5 1.1-1.2 1.1s-1.2-.5-1.2-1.1zm.3 3.2h1.7v10.1h-1.7V23.8zm9.1-.3c2.5 0 4.7 1.9 4.7 5.3s-2.2 5.3-4.7 5.3-4.7-1.9-4.7-5.3c0-3.3 2.2-5.3 4.7-5.3zm0 9.2c1.7 0 2.9-1.6 2.9-3.9s-1.2-3.9-2.9-3.9-2.9 1.6-2.9 3.9c0 2.4 1.2 3.9 2.9 3.9z"/><defs><filter id="Adobe_OpacityMaskFilter" filterUnits="userSpaceOnUse" x="6.4" y="2.2" width="35" height="36.1"><feColorMatrix values="1 0 0 0 0 0 1 0 0 0 0 0 1 0 0 0 0 0 1 0"/></filter></defs><mask maskUnits="userSpaceOnUse" x="6.4" y="2.2" width="35" height="36.1" id="SVGID_1_"><g class="st1"><linearGradient id="SVGID_2_" gradientUnits="userSpaceOnUse" x1="5700.899" y1="5775.309" x2="5740.288" y2="5735.92" gradientTransform="rotate(180 2872.056 2887.667)"><stop offset="0"/><stop offset=".003" stop-color="#010101"/><stop offset=".124" stop-color="#3C3C3C"/><stop offset=".248" stop-color="#707070"/><stop offset=".372" stop-color="#9C9C9C"/><stop offset=".496" stop-color="#C0C0C0"/><stop offset=".621" stop-color="#DBDBDB"/><stop offset=".746" stop-color="#EFEFEF"/><stop offset=".872" stop-color="#FBFBFB"/><stop offset="1" stop-color="#FFF"/></linearGradient><path class="st2" d="M4.7 -0.8L42.4 -0.8 42.4 40.3 4.7 40.3z"/></g></mask><g class="st3"><path class="st0" d="M13.2 18.4L13.2 19.7 14.5 19.7 14.6 19.7 16 19.7 16 19.7 17.3 19.7 18.7 19.7 18.7 18.3 18.7 16.9 17.3 16.9 17.3 15.6 16 15.6 16 14.2 14.6 14.2 14.5 14.2 13.2 14.2 13.2 15.6 13.2 15.7 13.2 17.1 13.2 17.1z"/><path class="st0" d="M23.5 6H25V7.5H23.5z"/><path class="st0" d="M17.7 16.5L19.2 16.5 19.2 15 17.7 15 17.7 13.5 16.2 13.5 16.2 15 17.7 15z"/><path class="st0" d="M20.3 15.1L20.3 15.3 20.3 16.5 20.3 16.6 20.3 17.9 21.6 17.9 21.8 17.9 23 17.9 23.1 17.9 24.4 17.9 24.4 17.9 25.8 17.9 25.8 16.5 24.4 16.5 24.4 15.1 23.1 15.1 23.1 13.8 21.8 13.8 21.8 12.5 20.3 12.5 20.3 13.9z"/><path class="st0" d="M22.3 11.2H23.8V12.7H22.3z"/><path class="st0" d="M29.8 3.2H31.3V4.7H29.8z"/><path class="st0" d="M23.9 12.8H25.4V14.3H23.9z"/><path class="st0" d="M37.4 4.7L37.4 3.3 36.6 3.3 36.6 2.2 35.2 2.2 35.2 3.7 35.9 3.7 35.9 4.7z"/><path class="st0" d="M32.6 6.3H34.1V7.8H32.6z"/><path class="st0" d="M25.4 14.4H26.9V15.9H25.4z"/><path class="st0" d="M18.9 21.3L18.9 21.4 18.9 22.6 18.9 22.7 18.9 24.1 18.9 24.1 18.9 25.4 20.2 25.4 20.3 25.4 21.5 25.4 21.7 25.4 22.9 25.4 23 25.4 24.4 25.4 24.4 24.1 24.4 23.9 24.4 22.6 23 22.6 23 21.3 21.7 21.3 21.7 19.9 20.2 19.9 18.9 19.9z"/><path class="st0" d="M22 19.3L22 20.8 23.5 20.8 23.5 22.3 25 22.3 25 20.8 23.5 20.8 23.5 19.3z"/><path class="st0" d="M33.6 10H35.1V11.5H33.6z"/><path class="st0" d="M31.9 13.7L31.6 13.7 31.6 12.8 30.6 12.8 30.6 12.4 29.2 12.4 29.2 11 27.8 11 27.8 12.4 27.8 12.4 27.8 13.8 27.8 15 27.8 15.2 27.8 16.5 29.3 16.5 29.3 16.5 30.5 16.5 30.5 16.5 31.9 16.5 33.3 16.5 33.3 15 31.9 15z"/><path class="st0" d="M28.5 17.4H30V18.9H28.5z"/><path class="st0" d="M37 10H38.5V11.5H37z"/><path class="st0" d="M30 19H31.5V20.5H30z"/><path class="st0" d="M41.4 7.6L39.9 7.6 39.9 8.1 39.8 8.1 39.8 9.6 41.3 9.6 41.3 9 41.4 9z"/><path class="st0" d="M37.8 13.2H39.3V14.7H37.8z"/><path class="st0" d="M31.6 20.5H33.1V22H31.6z"/><path class="st0" d="M30.5 22.5L30.5 21.2 29.2 21.2 29.2 19.9 27.8 19.9 27.8 18.5 26.4 18.5 26.4 20 26.4 21.2 26.4 21.3 26.4 22.5 26.4 22.7 26.4 24 27.7 24 27.8 24 29 24 29.2 24 30.4 24 30.5 24 31.8 24 31.8 22.5z"/><path class="st0" d="M27.8 25.1H29.3V26.6H27.8z"/><path class="st0" d="M36.9 19.4H38.4V20.9H36.9z"/><path class="st0" d="M29.3 26.6H30.8V28.1H29.3z"/><path class="st0" d="M30 28.3L28.7 28.3 28.7 27 27.4 27 27.4 25.6 25.9 25.6 24.6 25.6 24.6 27.1 24.6 28.3 24.6 28.4 24.6 29.6 24.6 29.8 24.6 31.1 26 31.1 27.2 31.1 27.4 31.1 28.6 31.1 28.7 31.1 30 31.1 30 29.6 30 29.6z"/><path class="st0" d="M23 32.4L23 27 17.6 27 17.6 21.7 12.3 21.7 12.3 16.4 6.4 16.4 6.4 22.2 6.4 22.2 6.4 27.6 6.4 27.6 6.4 32.4 6.4 32.4 6.4 38.3 12.3 38.3 12.3 38.3 17.6 38.3 17.6 38.3 23 38.3 23 38.3 28.8 38.3 28.8 32.4z"/></g></g></g></switch></svg>
